assets/No one under eighteen/Flat/no_one_under_eighteen_flat.svg

<svg width="32" height="32" viewBox="0 0 32 32" fill="none" xmlns="http://www.w3.org/2000/svg">
<path d="M27.875 15.9375C27.875 22.5304 22.5304 27.875 15.9375 27.875C9.3446 27.875 4 22.5304 4 15.9375C4 9.3446 9.3446 4 15.9375 4C22.5304 4 27.875 9.3446 27.875 15.9375Z" fill="white"/>
<path d="M22.9948 12.619C22.9948 13.68 22.5691 14.6415 21.8792 15.342C22.8982 16.1551 23.5513 17.4076 23.5513 18.8126C23.5513 21.2633 21.5646 23.25 19.1139 23.25C16.6632 23.25 14.6765 21.2633 14.6765 18.8126C14.6765 17.4076 15.3295 16.1551 16.3486 15.3421C15.6586 14.6415 15.2329 13.68 15.2329 12.619C15.2329 10.4757 16.9705 8.7381 19.1139 8.7381C21.2572 8.7381 22.9948 10.4757 22.9948 12.619ZM19.1139 14.25C20.0146 14.25 20.7448 13.5198 20.7448 12.619C20.7448 11.7183 20.0146 10.9881 19.1139 10.9881C18.2131 10.9881 17.4829 11.7183 17.4829 12.619C17.4829 13.5198 18.2131 14.25 19.1139 14.25ZM19.1139 20.5C20.0458 20.5 20.8013 19.7445 20.8013 18.8126C20.8013 17.8807 20.0458 17.1252 19.1139 17.1252C18.182 17.1252 17.4265 17.8807 17.4265 18.8126C17.4265 19.7445 18.182 20.5 19.1139 20.5Z" fill="black"/>
<path d="M13.5574 10.3311C13.5574 9.83065 13.2589 9.37847 12.7988 9.18173C12.3387 8.98499 11.8056 9.08161 11.4438 9.42732L8.68429 12.0642C8.18516 12.5411 8.16718 13.3323 8.64411 13.8315C9.12104 14.3306 9.9123 14.3486 10.4114 13.8717L11.0574 13.2544L11.0574 21.6143C11.0574 22.3046 11.6171 22.8643 12.3074 22.8643C12.9978 22.8643 13.5574 22.3046 13.5574 21.6143L13.5574 10.3311Z" fill="black"/>
<path d="M16 30C23.732 30 30 23.732 30 16C30 8.26801 23.732 2 16 2C8.26801 2 2 8.26801 2 16C2 23.732 8.26801 30 16 30ZM22.6453 24.7666C20.7991 26.1682 18.4967 27 16 27C9.92487 27 5 22.0751 5 16C5 13.5033 5.8318 11.2009 7.23339 9.35471L22.6453 24.7666ZM24.7666 22.6453L9.35471 7.23339C11.2009 5.8318 13.5033 5 16 5C22.0751 5 27 9.92487 27 16C27 18.4967 26.1682 20.7991 24.7666 22.6453Z" fill="#F8312F"/>
</svg>

<svg xmlns="http://www.w3.org/2000/svg" width="32" height="32" fill="none"><path fill="#fff" d="M27.875 15.938c0 6.592-5.345 11.937-11.938 11.937C9.346 27.875 4 22.53 4 15.937 4 9.346 9.345 4 15.938 4c6.592 0 11.937 5.345 11.937 11.938Z"/><path fill="#000" d="M22.995 12.619a3.868 3.868 0 0 1-1.116 2.723 4.437 4.437 0 1 1-5.53 0 3.881 3.881 0 1 1 6.646-2.723Zm-3.881 1.631a1.63 1.63 0 1 0 0-3.262 1.63 1.63 0 0 0 0 3.262Zm0 6.25a1.687 1.687 0 1 0 0-3.375 1.687 1.687 0 0 0 0 3.375ZM13.557 10.331a1.25 1.25 0 0 0-2.113-.904l-2.76 2.637a1.25 1.25 0 0 0 1.727 1.808l.646-.618v8.36a1.25 1.25 0 0 0 2.5 0V10.331Z"/><path fill="#F8312F" d="M16 30c7.732 0 14-6.268 14-14S23.732 2 16 2 2 8.268 2 16s6.268 14 14 14Zm6.645-5.233A10.952 10.952 0 0 1 16 27C9.925 27 5 22.075 5 16c0-2.497.832-4.8 2.233-6.645l15.412 15.412Zm2.122-2.122L9.355 7.233A10.952 10.952 0 0 1 16 5c6.075 0 11 4.925 11 11 0 2.497-.832 4.8-2.233 6.645Z"/></svg>
